icons/notification-minimal-alert.svg

<svg width="24" height="24" viewBox="0 0 24 24" fill="none" xmlns="http://www.w3.org/2000/svg">
<path fill-rule="evenodd" clip-rule="evenodd" d="M3.25 10.5C3.25 5.68579 7.18579 1.75 12 1.75C12.4142 1.75 12.75 2.08579 12.75 2.5C12.75 2.91421 12.4142 3.25 12 3.25C8.01421 3.25 4.75 6.51421 4.75 10.5V14.5C4.75 16.2858 6.21421 17.75 8 17.75H9.4H14.4H16C17.7858 17.75 19.25 16.2858 19.25 14.5V10.5C19.25 10.0858 19.5858 9.75 20 9.75C20.4142 9.75 20.75 10.0858 20.75 10.5V14.5C20.75 17.1142 18.6142 19.25 16 19.25H15.1408C15.0159 20.9444 13.63 22.25 11.9 22.25C10.17 22.25 8.78406 20.9444 8.65917 19.25H8C5.38579 19.25 3.25 17.1142 3.25 14.5V10.5ZM11.9 20.75C10.9993 20.75 10.2836 20.112 10.1667 19.25H13.6333C13.5164 20.112 12.8007 20.75 11.9 20.75ZM16.75 4.5C16.75 3.80964 17.3096 3.25 18 3.25C18.6904 3.25 19.25 3.80964 19.25 4.5C19.25 5.19036 18.6904 5.75 18 5.75C17.3096 5.75 16.75 5.19036 16.75 4.5ZM18 1.75C16.4812 1.75 15.25 2.98122 15.25 4.5C15.25 6.01878 16.4812 7.25 18 7.25C19.5188 7.25 20.75 6.01878 20.75 4.5C20.75 2.98122 19.5188 1.75 18 1.75Z" fill="black"/>
</svg>

<svg xmlns="http://www.w3.org/2000/svg" fill="none" viewBox="0 0 24 24">
  <path fill="#000" fill-rule="evenodd" d="M3.25 10.5c0-4.814 3.936-8.75 8.75-8.75a.75.75 0 0 1 0 1.5c-3.986 0-7.25 3.264-7.25 7.25v4A3.262 3.262 0 0 0 8 17.75h8a3.262 3.262 0 0 0 3.25-3.25v-4a.75.75 0 0 1 1.5 0v4A4.762 4.762 0 0 1 16 19.25h-.86a3.223 3.223 0 0 1-3.24 3 3.223 3.223 0 0 1-3.24-3H8a4.762 4.762 0 0 1-4.75-4.75v-4Zm8.65 10.25c-.9 0-1.616-.638-1.733-1.5h3.466a1.722 1.722 0 0 1-1.733 1.5ZM16.75 4.5a1.25 1.25 0 1 1 2.5 0 1.25 1.25 0 0 1-2.5 0ZM18 1.75a2.75 2.75 0 1 0 0 5.5 2.75 2.75 0 0 0 0-5.5Z" clip-rule="evenodd"/>
</svg>
